plasma/desktoptheme/Materia/icons/list.svg

<?xml version="1.0" encoding="UTF-8"?>
<svg width="32" height="32" version="1.1" xmlns="http://www.w3.org/2000/svg">
 <g id="22-22-list-add" transform="translate(-253 15.003)">
  <path d="m285-5.0033h22v22h-22z" opacity=".001"/>
  <path transform="translate(285 -5.0033)" d="m9 3v6h-6v4h6v6h4v-6h6v-4h-6v-6z" fill="#dfdfdf"/>
 </g>
 <g id="16-16-list-add" transform="translate(-234,42)">
  <rect x="288" y="-26" width="16" height="16" opacity=".001"/>
  <g transform="translate(288 -26.003)">
   <g transform="translate(-285 -.99666)">
    <path d="m292 1.9967v6h-6v2h6v6h2v-6h6v-2h-6v-6z" fill="#dfdfdf"/>
   </g>
  </g>
 </g>
 <g id="list-add">
  <rect width="32" height="32" opacity=".001"/>
  <rect x="13" y="3" width="6" height="28" rx="2" ry="2" opacity=".2"/>
  <rect x="13" y="2" width="6" height="28" rx="2" ry="2" fill="#309930"/>
  <rect transform="rotate(90)" x="14" y="-30" width="6" height="28" rx="2" ry="2" opacity=".2"/>
  <rect transform="rotate(90)" x="13" y="-30" width="6" height="28" rx="2" ry="2" fill="#24c65b"/>
  <path d="m15 2c-1.108 0-2 0.892-2 2v1c0-1.108 0.892-2 2-2h2c1.108 0 2 0.892 2 2v-1c0-1.108-0.892-2-2-2h-2z" fill="#fff" opacity=".1"/>
  <path d="m4 13c-1.108 0-2 0.892-2 2v1c0-1.108 0.892-2 2-2h24c1.108 0 2 0.892 2 2v-1c0-1.108-0.892-2-2-2h-24z" fill="#fff" opacity=".2"/>
 </g>
 <g id="22-22-list-remove" transform="translate(-253 -16.997)">
  <path d="m285-5.0033h22v22h-22z" opacity=".001"/>
  <path transform="translate(285 -5.0033)" d="m3 9v4h16v-4h-16z" fill="#dfdfdf"/>
 </g>
 <g id="16-16-list-remove" transform="translate(-234,10)">
  <rect x="288" y="-26" width="16" height="16" opacity=".001"/>
  <g transform="translate(288 -26.003)">
   <g transform="translate(-285 -.99666)">
    <path d="m286 7.9967v2h14v-2h-14z" fill="#dfdfdf"/>
   </g>
  </g>
 </g>
 <g id="list-remove">
  <rect y="-32" width="32" height="32" opacity=".001"/>
  <rect transform="rotate(90)" x="-18" y="-30" width="6" height="28" rx="2" ry="2" opacity=".2"/>
  <rect transform="rotate(90)" x="-19" y="-30" width="6" height="28" rx="2" ry="2" fill="#c2352a"/>
  <path d="m4-19c-1.108 0-2 0.892-2 2v1c0-1.108 0.892-2 2-2h24c1.108 0 2 0.892 2 2v-1c0-1.108-0.892-2-2-2z" fill="#fff" opacity=".2"/>
 </g>
</svg>

<svg xmlns="http://www.w3.org/2000/svg"  width="32" height="32" version="1.1">
 <g id="22-22-list-add" transform="translate(-253.00081,15.00334)">
  <path style="opacity:0.001"  d="m 285.00081,-5.00334 h 22 v 22 h -22 z"/>
  <path style="fill:#dfdfdf"  transform="translate(285.00081,-5.00334)" d="M 9,3 V 9 H 3 v 4 h 6 v 6 h 4 v -6 h 6 V 9 H 13 V 3 Z"/>
 </g>
 <g id="16-16-list-add" transform="translate(-234,42)">
  <rect style="opacity:0.001"  width="16" height="16" x="288" y="-26"/>
  <g  transform="translate(288.00081,-26.00334)">
   <g  transform="translate(-285.00081,-0.99666)">
    <path style="fill:#dfdfdf"  d="m 292.00081,1.99666 v 6 h -6 v 2 h 6 v 6 h 2 v -6 h 6 v -2 h -6 v -6 z"/>
   </g>
  </g>
 </g>
 <g id="list-add">
  <rect style="opacity:0.001"  width="32" height="32" x="0" y="0"/>
  <rect style="opacity:0.2"  width="6" height="28" x="13" y="3" rx="2" ry="2"/>
  <rect style="fill:#309930"  width="6" height="28" x="13" y="2" rx="2" ry="2"/>
  <rect style="opacity:0.2"  width="6" height="28" x="14" y="-30" rx="2" ry="2" transform="rotate(90)"/>
  <rect style="fill:#24c65b"  width="6" height="28" x="13" y="-30" rx="2" ry="2" transform="rotate(90)"/>
  <path style="opacity:0.1;fill:#ffffff"  d="M 15 2 C 13.892 2 13 2.892 13 4 L 13 5 C 13 3.892 13.892 3 15 3 L 17 3 C 18.108 3 19 3.892 19 5 L 19 4 C 19 2.892 18.108 2 17 2 L 15 2 z"/>
  <path style="opacity:0.2;fill:#ffffff"  d="M 4 13 C 2.892 13 2 13.892 2 15 L 2 16 C 2 14.892 2.892 14 4 14 L 28 14 C 29.108 14 30 14.892 30 16 L 30 15 C 30 13.892 29.108 13 28 13 L 4 13 z"/>
 </g>
 <g id="22-22-list-remove" transform="translate(-253.00081,-16.99666)">
  <path style="opacity:0.001"  d="m 285.00081,-5.00334 h 22 v 22 h -22 z"/>
  <path style="fill:#dfdfdf"  transform="translate(285.00081,-5.00334)" d="m 3,9 v 4 c 0,0 4.9164908,0 16,0 V 9 C 19,9 14.083509,9 3,9 Z"/>
 </g>
 <g id="16-16-list-remove" transform="translate(-234,10)">
  <rect style="opacity:0.001"  width="16" height="16" x="288" y="-26"/>
  <g  transform="translate(288.00081,-26.00334)">
   <g  transform="translate(-285.00081,-0.99666)">
    <path style="fill:#dfdfdf"  d="m 286.00081,7.99666 v 2 c 0,0 2.04574,0 14,0 v -2 c 0,0 -2.04574,0 -14,0 z"/>
   </g>
  </g>
 </g>
 <g id="list-remove">
  <rect style="opacity:0.001"  width="32" height="32" x="0" y="-32"/>
  <rect style="opacity:0.2"  width="6" height="28" x="-18" y="-30" rx="2" ry="2" transform="rotate(90)"/>
  <rect style="fill:#c2352a"  width="6" height="28" x="-19" y="-30" rx="2" ry="2" transform="rotate(90)"/>
  <path style="opacity:0.2;fill:#ffffff"  d="m 4,-19 c -1.108,0 -2,0.892 -2,2 v 1 c 0,-1.108 0.892,-2 2,-2 h 24 c 1.108,0 2,0.892 2,2 v -1 c 0,-1.108 -0.892,-2 -2,-2 z"/>
 </g>
</svg>
